X: 557
T:Put Me in the Big Chest
T:Cuir 'sa Chiste Mhoir Mi
T:Miss Cruickshank's Reel
S:Niall Kenny, flute
Z:Gordon Turnbull
B:Cruinn Comhla
M:C|
L:1/8
R:reel
N:Posted to the woodenflute mailing list, July 2002
K:A
F| EFAB c2cf | ecBA F/F/F AF | EFAB cBcf | ecBc A3 :|
c| efec eAAc | efec BABc | efec efaf | ecBc A3 :|
F| EFAB c2cB | c2cB ce f2 | EFAB cBcf | ecBc A3 :|
c| efec eAAc | efec BABc | efec efaf |ecBc A3 :|

